X:1
T: Mrs Stewart of Bombay
C:
R:Jig
Q:180
K:D
M:6/8
L:1/16
f2|d6D6|A2F2D2 D4F2|B,4E2 E2F2G2|F2E2D2 C2B,2A,2|d6D6|A2F2D2 D4F2|E2g2f2 e2d2c2|d6d4f2|
d6D6|A2F2D2 D4F2|B,4E2 E2F2G2|F2E2D2 C2B,2A,2|d6D6|A2F2D2 D4F2|E2g2f2 e2d2c2|d6d4A2|
d4d2 f2a2f2|d2f2d2 f2a2f2|B4e2 e2f2d2|c6A4c2|d4d2 f2a2f2|g2b2g2 f2a2f2|e2g2e2 c2B2c2|d6d4A2|
d4d2 f2a2f2|d2f2d2 f2a2f2|B4e2 e2f2d2|c6A4c2|d2e2f2 e2f2g2|f2e2d2 c2B2A2|Bcd2B2 cde2c2|d6d4||
